frontend/src/assets/icons/warranty.svg

<svg viewBox="0 -0.5 25 25" fill="none" xmlns="http://www.w3.org/2000/svg" stroke="#ff0000"><g id="SVGRepo_bgCarrier" stroke-width="0"></g><g id="SVGRepo_tracerCarrier" stroke-linecap="round" stroke-linejoin="round"></g><g id="SVGRepo_iconCarrier"> <path d="M10.4608 1.50732C11.2607 0.539132 12.7446 0.539132 13.5445 1.50732L14.7445 2.95979C15.1677 3.472 15.8176 3.74061 16.4789 3.67664L18.3571 3.49495C19.6102 3.37372 20.6624 4.42666 20.5402 5.67974L20.3597 7.53129C20.2949 8.1958 20.566 8.84883 21.0823 9.2721L22.5232 10.4533C23.4993 11.2534 23.4993 12.7466 22.5232 13.5467L21.0823 14.7279C20.566 15.1512 20.2949 15.8042 20.3597 16.4687L20.5402 18.3203C20.6624 19.5733 19.6102 20.6263 18.3571 20.505L16.4789 20.3234C15.8176 20.2594 15.1677 20.528 14.7445 21.0402L13.5445 22.4927C12.7446 23.4609 11.2607 23.4609 10.4608 22.4927L9.26079 21.0402C8.83761 20.528 8.18769 20.2594 7.52637 20.3234L5.64824 20.505C4.39507 20.6263 3.34293 19.5733 3.4651 18.3203L3.64562 16.4687C3.71041 15.8042 3.43933 15.1512 2.92298 14.7279L1.48208 13.5467C0.505968 12.7466 0.505968 11.2534 1.48208 10.4533L2.92298 9.2721C3.43933 8.84883 3.71041 8.1958 3.64562 7.53129L3.4651 5.67974C3.34293 4.42666 4.39507 3.37372 5.64824 3.49495L7.52637 3.67664C8.18769 3.74061 8.83761 3.472 9.26079 2.95979L10.4608 1.50732Z" stroke="#000000" stroke-width="1.5"></path> <path d="M8.12549 12.7725L10.4136 15.0516C10.8437 15.48 11.5531 15.4296 11.9182 14.9446L15.8801 9.68274" stroke="#000000" stroke-width="1.5" stroke-linecap="round"></path> </g></svg>

<svg viewBox="0 -0.5 25 25" fill="none" xmlns="http://www.w3.org/2000/svg" stroke="red"><g stroke="#000" stroke-width="1.5"><path d="M10.46 1.507a2 2 0 0 1 3.084 0l1.2 1.453a2 2 0 0 0 1.735.717l1.878-.182A2 2 0 0 1 20.54 5.68l-.18 1.851a2 2 0 0 0 .722 1.741l1.441 1.181a2 2 0 0 1 0 3.094l-1.44 1.18a2 2 0 0 0-.723 1.742l.18 1.851a2 2 0 0 1-2.183 2.185l-1.878-.182a2 2 0 0 0-1.734.717l-1.2 1.453a2 2 0 0 1-3.084 0l-1.2-1.453a2 2 0 0 0-1.735-.717l-1.878.182a2 2 0 0 1-2.183-2.185l.18-1.851a2 2 0 0 0-.722-1.741l-1.44-1.181a2 2 0 0 1 0-3.094l1.44-1.18a2 2 0 0 0 .723-1.742l-.18-1.851a2 2 0 0 1 2.182-2.185l1.878.182a2 2 0 0 0 1.735-.717l1.2-1.453z"/><path d="m8.125 12.773 2.289 2.279a1 1 0 0 0 1.504-.107l3.962-5.262" stroke-linecap="round"/></g></svg>
